X:1
T:The Bonnie Hoose O' Airlie  "CYMRU"
M:C
L:1/8
Q:80
C:
S:March
K:HP
| {g}A2{GdGe}A3/2B/2{Gdc}d2{g}d3/2c/2|
{gBd}B{e}A{g}B/2d3/2{g}e2{g}((3def)|
{g}A3B{Gdc}df{g}ed|  !
{gBd}B4{G}A3G| |
{g}A2{GdGe}A3/2B/2{Gdc}d2{g}d3/2c/2|
{gBd}B{e}A{g}B/2d3/2{g}e2{g}((3def)|  !
{g}A3B{Gdc}df{g}ed|
{gBd}B4{G}A3d|] |
{gef}e2{GdG}e3/2f/2{ag}a3f|  !
{gf}gf{g}ef{Gdc}d4|
{g}e2{GdG}e3/2f/2{ag}a2f2|
{g}f3g/2f/2{gef}e3d| |  !
{gef}e2{GdG}e3/2f/2{ag}a3f|
{gf}gf{g}ed{gef}e2{g}((3def)|
{g}A3B{Gdc}df{g}ed|  !
{gBd}B4{G}A4|]

